X:157
T: ES WOLLT EIN MAEDEL WASSER HOL'N, WOHL AUS DEM KUEHLEN BRUNNEN
N: Z0156
O: Europa, Mitteleuropa, Deutschland, Pommern
R: Erzaehlung, lustige Romanze
M: 2/4
L: 1/16
K: F
C2 | F2G2A2B2 | c2c2c2
c2 | d2c2d2e2 | f2edc4 |
AFAcB4 | GEGBA3
G | F2G2A2c2 | G4F2

@@@ Tune index: 9915
